dealnox/img/sprite/icon-blog.svg

<svg width="27" height="25" viewBox="0 0 27 25" fill="none" xmlns="http://www.w3.org/2000/svg">
<g clip-path="url(#clip0_666_677)">
<path d="M0 7.94112C0.0616992 7.64801 0.110744 7.35161 0.186682 7.06125C0.813166 4.69218 2.82339 3.03362 5.18695 3.00887C8.14851 2.97863 11.1101 2.99787 14.0716 3.00227C14.7081 3.00227 15.1843 3.4972 15.1791 4.11422C15.1717 4.74113 14.7045 5.19756 14.0537 5.19811C11.1533 5.20086 8.25293 5.19811 5.35254 5.20086C3.68613 5.20086 2.39467 6.36285 2.13997 8.07915C2.11701 8.25204 2.10678 8.42651 2.10938 8.60103C2.10937 12.9179 2.10796 17.2348 2.10515 21.5517C2.10515 22.0791 2.27127 22.4937 2.74535 22.7065C3.20731 22.916 3.61284 22.7753 3.97565 22.425C4.48507 21.9339 5.01347 21.4632 5.52341 20.9721C5.78208 20.7194 6.12631 20.5842 6.48053 20.5959C10.1368 20.6011 13.793 20.6011 17.4493 20.5959C19.0002 20.5959 20.2252 19.5901 20.5859 18.0294C20.64 17.7795 20.6676 17.5241 20.6682 17.2678C20.6782 16.4798 20.6682 15.6912 20.6724 14.9031C20.675 14.235 21.1201 13.74 21.7181 13.734C22.3161 13.728 22.7834 14.224 22.7786 14.8888C22.7712 15.9337 22.8108 16.9824 22.7196 18.0195C22.5128 20.3683 20.5664 22.4233 18.3268 22.7324C17.9959 22.7761 17.6626 22.7976 17.329 22.7967C13.9189 22.8011 10.5087 22.8011 7.09857 22.7967C6.84597 22.7967 6.65402 22.8578 6.46575 23.0442C6.05284 23.4555 5.62781 23.8553 5.18695 24.2331C4.7621 24.6038 4.25129 24.8515 3.7057 24.9515C3.16011 25.0514 2.59891 25.0001 2.07835 24.8025C1.55779 24.605 1.09615 24.2683 0.73971 23.8261C0.38327 23.3839 0.144539 22.8518 0.0474558 22.2831C0.0352051 22.2306 0.0193488 22.1792 0 22.1291V7.94112Z" fill="#968E8E"/>
<path d="M26.9999 3.70608C26.926 3.97664 26.8944 4.27085 26.7684 4.51281C26.5622 4.9115 26.3465 5.32999 26.0475 5.6473C23.4958 8.33788 20.9316 11.0162 18.3546 13.6822C16.7757 15.3171 14.861 16.1569 12.6308 16.1976C11.8925 16.2108 11.4501 15.7362 11.4707 14.9663C11.5276 12.6016 12.3724 10.5922 13.975 8.92263C16.4799 6.31271 18.9834 3.70076 21.4855 1.0868C22.403 0.126085 23.493 -0.233014 24.7355 0.151931C25.9916 0.536876 26.7278 1.46294 26.9614 2.813C26.9656 2.8372 26.9877 2.85755 27.0014 2.88009L26.9999 3.70608ZM13.6934 13.8796C13.7767 13.8653 13.8184 13.8604 13.859 13.851C15.0482 13.5761 16.0617 12.9712 16.9176 12.0726C18.2697 10.6589 19.6232 9.24746 20.9781 7.83819C22.152 6.61406 23.3261 5.3903 24.5003 4.16691C24.7202 3.93869 24.872 3.68133 24.8852 3.35138C24.8932 3.12997 24.8372 2.91116 24.7243 2.72344C24.6115 2.53571 24.447 2.38776 24.2524 2.29883C23.8305 2.1069 23.3934 2.20809 23.0274 2.58973C20.461 5.26602 17.8981 7.94231 15.3387 10.6186C15.0108 10.9752 14.7182 11.3654 14.4654 11.7833C14.08 12.4064 13.8305 13.0987 13.6934 13.8796Z" fill="#968E8E"/>
<path d="M6.83543 11.7987C6.32654 11.7987 5.81764 11.8036 5.30875 11.7987C4.68174 11.7915 4.22242 11.3291 4.21925 10.7115C4.21609 10.0939 4.67594 9.61165 5.29557 9.60395C6.33057 9.59295 7.36611 9.59295 8.40216 9.60395C9.03761 9.60945 9.50168 10.0989 9.49166 10.7258C9.48164 11.3423 9.02126 11.7937 8.38898 11.7998C7.87113 11.8025 7.35328 11.7987 6.83543 11.7987Z" fill="#968E8E"/>
<path d="M6.84967 16.1984C6.33182 16.1984 5.81397 16.2033 5.29612 16.1984C4.6844 16.1907 4.22928 15.732 4.21926 15.126C4.21607 14.979 4.24129 14.8328 4.2934 14.6961C4.34551 14.5594 4.42347 14.4351 4.52261 14.3305C4.62176 14.2258 4.74005 14.1431 4.87049 14.0871C5.00093 14.0312 5.14084 14.0032 5.28188 14.0047C6.32602 13.9919 7.37016 13.9919 8.4143 14.0047C9.03551 14.0113 9.49431 14.4969 9.49167 15.1117C9.48903 15.7265 9.0297 16.1929 8.40269 16.2C7.88483 16.2033 7.367 16.1984 6.84967 16.1984Z" fill="#968E8E"/>
</g>
<defs>
<clipPath id="clip0_666_677">
<rect width="27" height="25" fill="white"/>
</clipPath>
</defs>
</svg>

<svg width="27" height="25" fill="none" xmlns="http://www.w3.org/2000/svg"><g clip-path="url(#clip0_666_677)" fill="#968E8E"><path d="M0 7.941c.062-.293.11-.59.187-.88.626-2.369 2.636-4.027 5-4.052 2.962-.03 5.923-.011 8.885-.007a1.09 1.09 0 0 1 1.107 1.112c-.007.627-.475 1.084-1.125 1.084-2.9.003-5.801 0-8.701.003-1.667 0-2.958 1.162-3.213 2.878a3.562 3.562 0 0 0-.03.522c0 4.317-.002 8.634-.005 12.95 0 .528.166.943.64 1.155.462.21.868.07 1.23-.281.51-.491 1.038-.962 1.548-1.453.26-.253.603-.388.958-.376 3.656.005 7.312.005 10.968 0 1.551 0 2.776-1.006 3.137-2.567a3.64 3.64 0 0 0 .082-.761c.01-.788 0-1.577.004-2.365.003-.668.448-1.163 1.046-1.169.598-.006 1.065.49 1.06 1.155-.007 1.045.033 2.093-.058 3.13-.207 2.35-2.154 4.404-4.393 4.713-.331.044-.664.066-.998.065-3.41.004-6.82.004-10.23 0-.253 0-.445.06-.633.247-.413.412-.838.811-1.279 1.19-.425.37-.936.617-1.481.717-.546.1-1.107.05-1.628-.149a3.163 3.163 0 0 1-1.338-.976 3.36 3.36 0 0 1-.693-1.543A1.157 1.157 0 0 0 0 22.13V7.941z"/><path d="M27 3.706c-.074.27-.106.565-.232.807-.206.399-.422.817-.72 1.134-2.552 2.69-5.116 5.37-7.693 8.035-1.58 1.635-3.494 2.475-5.724 2.516-.739.013-1.18-.462-1.16-1.232.057-2.364.901-4.374 2.504-6.043a8152.33 8152.33 0 0 0 7.51-7.836c.918-.96 2.008-1.32 3.25-.935 1.257.385 1.993 1.31 2.226 2.661.005.024.027.045.04.067L27 3.706zM13.693 13.88c.084-.015.125-.02.166-.029 1.19-.275 2.203-.88 3.059-1.778A11838.942 11838.942 0 0 1 24.5 4.167c.22-.228.371-.486.384-.816a1.14 1.14 0 0 0-.16-.628 1.072 1.072 0 0 0-.473-.424c-.421-.192-.859-.09-1.225.29-2.566 2.677-5.129 5.353-7.688 8.03-.328.356-.62.746-.874 1.164-.385.623-.634 1.316-.772 2.097zM6.835 11.799c-.508 0-1.017.005-1.526 0-.627-.008-1.087-.47-1.09-1.088-.003-.617.457-1.1 1.077-1.107a146.23 146.23 0 0 1 3.106 0c.636.005 1.1.495 1.09 1.122-.01.616-.47 1.068-1.103 1.074-.518.002-1.036-.001-1.554-.001zM6.85 16.198c-.518 0-1.036.005-1.554 0a1.066 1.066 0 0 1-1.077-1.072 1.138 1.138 0 0 1 .304-.795 1.016 1.016 0 0 1 .76-.326c1.043-.013 2.087-.013 3.131 0 .622.006 1.08.492 1.078 1.107-.003.614-.462 1.08-1.09 1.088-.517.003-1.035-.002-1.552-.002z"/></g><defs><clipPath id="clip0_666_677"><path fill="#fff" d="M0 0h27v25H0z"/></clipPath></defs></svg>
